resources/images/single_slot_ams_item_dark.svg

<svg width="29" height="33" xmlns="http://www.w3.org/2000/svg" fill="none">
 <defs>
  <clipPath id="clip0_20951_60572">
   <rect id="svg_1" x="4.77881" y="3.94775" fill="white" height="25" width="20"/>
  </clipPath>
 </defs>
 <g>
  <title _mstTextHash="5637814" _mstHash="1">第 1 层</title>
  <path id="svg_2" fill="#2d2d31" d="m4.77881,0.44775c-2.20914,0 -4,1.79086 -4,4l0,24.00005c0,2.2091 1.79086,4 4,4l19.99999,0c2.2091,0 4,-1.7909 4,-4l0,-24.00005c0,-2.20914 -1.7909,-4 -4,-4l-19.99999,0zm16.34619,8l-11.70898,0l0,16.00005l11.70898,0l0,-16.00005z" clip-rule="evenodd" fill-rule="evenodd"/>
  <g id="svg_3" clip-path="url(#clip0_20951_60572)">
   <path id="svg_4" fill="#CECECE" d="m11.7788,16.7349l-6.99999,0l0,12l19.99999,0l0,-12l-7,0l0,2.2617c0,1.6569 -1.3431,3 -3,3c-1.6568,0 -3,-1.3431 -3,-3l0,-2.2617z" clip-rule="evenodd" fill-rule="evenodd"/>
   <path id="svg_5" fill="#EEEEEE" d="m11.9626,4.73486c-2.86291,0 -5.18379,2.32088 -5.18379,5.18382l0,6.81622l4.99999,0l0,-3.7383c0,-1.6569 1.3432,-3.00002 3,-3.00002c1.6569,0 3,1.34312 3,3.00002l0,3.7383l5,0l0,-6.81622c0,-2.86294 -2.3209,-5.18382 -5.1838,-5.18382l-5.6324,0z" clip-rule="evenodd" fill-rule="evenodd"/>
  </g>
 </g>
</svg>

<svg width="29" height="33" viewBox="0 0 29 33" fill="none" xmlns="http://www.w3.org/2000/svg">
<path fill-rule="evenodd" clip-rule="evenodd" d="M11.7788 16.7349H4.77881V28.7349H24.7788V16.7349H17.7788V18.9966C17.7788 20.6535 16.4357 21.9966 14.7788 21.9966C13.122 21.9966 11.7788 20.6535 11.7788 18.9966V16.7349Z" fill="#767676"/>
<path fill-rule="evenodd" clip-rule="evenodd" d="M11.9626 4.73486C9.09969 4.73486 6.77881 7.05574 6.77881 9.91868V16.7349H11.7788V12.9966C11.7788 11.3397 13.122 9.99658 14.7788 9.99658C16.4357 9.99658 17.7788 11.3397 17.7788 12.9966V16.7349H22.7788V9.91868C22.7788 7.05574 20.4579 4.73486 17.595 4.73486H11.9626Z" fill="#BFBFBF"/>
</svg>
